X: 2031
T: New Bore Baptist.
%R: bour\ee
B: Henry Playford "Apollo's Banquet", London 1687 (5th Edition)
F: https://archive.org/details/apollosbanquetco01rugg
Z: 2017 John Chambers <jc:trillian.mit.edu>
M: C|
L: 1/8
K: Bb
% - - - - - - - - - -
f2 |\
d2B2 c2A2 | B4 e3f | d2g2 g3a | ^f6 g2 |\
a2b2 d3d | e2 e4 cc | f2 f4 AA | B2G2 G3A |\
^F6 :: A2 |\
B2B2 =B3c | d2 G4 gf |
e2dc =B3c | c4 (cG)A2 | F4 (fc)d2 | d4 (bf)g2 |\
g6 ed | c2B2 B3A | B6 !segno!y bb |\
b2ag a2gf | g3d (_ed)(cB) | B2B2 B3A | B6 |]
% - - - - - - - - - -

%%sep 1 1 500
%%sep 1 1 500

